X:1
T: Woodland's Waltz
N:
C:Jonathan Jensen
S:
A:
O:
R:
M:3/4
K:G
I:speed 150
%W:
% voice 1 (1 lines, 31 notes)
K:G
M:3/4
L:1/16
b4 |a4 g8|g2 c2 A2 c2 d2 e2 |d12|d2 c'2 b2 g2 a2 b2 |a4 g8|g2 c2 A2 c2 d2 e2 |d12|d2 B2 c2 B2 A2 G2 |
%W:
% voice 1 (1 lines, 28 notes)
B4 d6 g2 |b4 c'2 b2 a2 g2 |e12|e2 e2 f2 g2 f2 e2 |d4 g6 B2 |d4 c6 F2 |G12|G2 d2 B2 B2 G2 A2 |
%W:
% voice 1 (1 lines, 29 notes)
B4 d8|d2 d2 A2 B2 c2 =F2 |A4 c8|c2 c2 B2 A2 G2 A2 |B4 e6 f2 |g4 c4 B4 |A12|A2 B2 c2 B2 A2 G2 |
%W:
% voice 1 (1 lines, 23 notes)
B4 d6 g2 |b4 c'2 b2 a2 g2 |e12|e2 e2 f2 g2 f2 e2 |d4 g6 B2 |d4 c6 F2 |G12|G8 ||
